X: 314
T: Spotted Pony
B: canberra pickers and fiddlers
B: tunes
M:4/4
L:1/8
Q: 1/4=100
K:D
V:1 
|:"D"D2DD "A"E2EE | "D"FF FF "G"G2GG | "D"AB de fe de | "A"f2a2e4 |
"D"D2DD "A"E2EE | "D"FF FF "G"G2GG | "D"AB de fe de | "A"f2e2"D"d3e ::
"D"f2a2f4 | "G"ef ed B4 | "D"AB de fe de | "D"f2a2"A"e4 |
"D"f2a2f4 | "G"ef ed B4 | "D"AB de fe de | "A"f2e2"D"d4 :|
% abcbook-tune_id 63da5934dbfe724ef7749ced
% abcbook-tune_composer_id 
% abcbook-link-0 https://www.youtube.com/watch?v=b0igMpl5xIw
% abcbook-boost 0
% abcbook-difficulty 0
% abcbook-tags canberra pickers and fiddlers,old time tunes,© free
% abcbook-tablature 
% abcbook-transpose 
% abcbook-tuning ADAE
% abcbook-lastupdated 1675254068533
% abcbook-src-url https://tunebook.net/scrape/tunes.abc
% abcbook-soundfonts 
% abcbook-repeats 1
%%gchordfont "itim-music,Itim" 20

